X:2144
T:Brickmakers,The. JB.32
T:Brickmaker's Frolic,The,aka. JB.32
M:2/4
L:1/8
Q:240
S:James Biggins MS, Leeds, 1779.
R:Misc.
O:England
A:Yorkshire
Z:vmp.Nick Barber & Chris Partington
K:Bb
B/c/|dB2d|cA2c|BG2B|A^FD2|GABc|BAG^F|G2G2|G3:|!
|:B/c/|db2a|ag2f|fg2f|f2gA|B2cd|e2fg|fdcB|!
A2F2BA2c|cB2d|dc2e|^F2D2|GABc|BAG^F|G2G2|G3:|]


